X:1
T:Title
%%score { ( 1 3 ) | ( 2 4 ) }
L:1/8
Q:1/4=100
M:6/8
K:Ab
V:1 treble nm="Grand Piano"
V:3 treble 
V:2 treble 
V:4 treble 
V:1
 c>BA d2 d | c3 A3 | G>GG F2 G | A2- [DA-] [CA]2 A, | c>BA d2 d | c3 A3 | %6
w: J.~Howard~Entwisle * * * *||||||
 [EG]>[EA][EG] [=DG]2 [DF] | E6 | B>BB c2 B | A3 e3 | B>BB A2 [FB] | [=Ec]6 | c>cc d2 c | %13
w: |||||||
 [=Dc]3[K:bass][K:treble] [DB]3 | B>cd c2 B | [A,CA]6 | A>EA cBA | [DGB]2 [Ge] [Ge]3 | %18
w: |||||
 .e>.f.e b2 D | .e>.f.e e'2 C | eBc dcB |[M:7/8] Ac[_Ge] [Ff]3 [Af] |[M:3/4] [Ae]>d c [EGc]2 [GB] | %23
w: |||||
 [CEA]6 |] %24
w: |
V:2
 E>DC F2 =E | E3 C3 | [E,B,D]>[E,B,D][E,B,D] [E,A,D]2 [E,B,D] | z2 F, .[A,,E,]3 | E>DC F2 =E | %5
 E3 C3 | [B,,B,]>[B,,B,][B,,B,] [B,,B,]2 [B,,A,] | [E,G,]6 | D>D[E,G,D] [E,G,D]2 [G,D] | %9
 [E,A,C]2 [E,A,] E2- [E,A,E] | D>D[E,G,D] [F,A,C]2 [D,F,] | [C,G,]2 C, .C,3 | %12
 E>E[F,=A,E] [F,A,E]2 [F,A,E] | .[B,,A,]3 [B,,A,]2 B,, | D>E[E,G,F] [E,G,E]2 [E,G,D] | A,,6 | %16
 A,>E,A, CB,A, | E,2 [E,B,] [E,B,]3 | [E,G,D]2 [E,G,D] [E,G,D]2 [E,G,] | %19
 [E,A,C]2 [E,A,C] [E,A,C]2 [E,A,] | [E,G,D]2 [E,G,D] [E,G,D]2 [E,G,D] | %21
[M:7/8] [E,A,C]2 [C,A,] [D,A,]3 [=D,_C] |[M:3/4] z z/[K:treble] [FA]/ [EA][K:bass] [E,,E,]2 [DE] | %23
 [A,,,A,,]6 |] %24
V:3
 x6 | x6 | x6 | .[A,C]3 z3 | x6 | x6 | x6 | x6 | x6 | z2 C z2 C | x6 | z2 G, .G,3 | x6 | %13
 z2[K:bass] [B,,A,][K:treble] z2 A, | x6 | x6 | x6 | x6 | x6 | x6 | x6 |[M:7/8] x7 |[M:3/4] x6 | %23
 x6 |] %24
V:4
 x6 | x6 | x6 | A,,3 z3 | x6 | x6 | x6 | x6 | .[E,G,]3 z3 | z3 .[E,A,C]3 | .[E,G,]3 z3 | x6 | %12
 .[F,=A,]3 z3 | x6 | .[E,G,]3 z3 | x6 | x6 | x6 | x6 | x6 | x6 |[M:7/8] x7 | %22
[M:3/4] [E,C]2[K:treble] z2[K:bass] z2 | x6 |] %24

